X: 1
T: Highland Schottische
R: strathspey
M: 4/4
L: 1/8
K: Dmaj
|:B2B>D A2A>B|d>ef>d e>dB>G|B2B>d A2A>g|1 f>ae>c d2D>G:|2 f>a e>c d2 d>g||
f>aa>f g>ab>g|a>fd>f e>dB>g|f>aa>f g>ab>g|a>fe>f d2d>g|
f>aa>f g>ab>g|a>fd>f e>dB>G|B2B>d A2A>g f>ae>c d2D>G|

